X:1
T:Title
%%score { ( 1 2 5 ) | ( 3 4 6 ) }
L:1/8
Q:1/4=120
M:4/2
K:D
V:1 treble nm="Grand Piano"
V:2 treble 
V:5 treble 
V:3 bass 
V:4 bass 
V:6 bass 
V:1
 F4 A4 D4 F4 | z8 F4 D4 | B4 B4 A4 F4 | z2 .E6 z8 | F4 A4 D4 F4 | z8 F4 F4 | G4 A4 B4 z4 | %7
w: James~V.~Reid * * *|||||||
 [DA]2 [^G,DF]4[K:bass] [=G,A,E]2 [F,A,D]8 | d4 c4 B4 A4 | F2 D2 C2 D2 z2 [DG]2 z2 F2 | z8 e4 d4 | %11
w: ||||
 d8 c8 | B4 A4 B4 A4 | G2 E2 C2 E2 z2 [CG]2 z2 G2 | z8 B4 F4 | A8 z8 | F4 F4 F4 F4 | z8 [B,B]4 z4 | %18
w: |||||||
 z8 e4 d4 | e8 z8 | d4 d4 c4 d4 | .d4 z4 z8 | B4 z4 z8 | [FAd]16[K:bass] |] %24
w: ||||||
V:2
 z2 D2 z2 E2 z2 B,2 z2 D2 | [B,B]2 [CA]2 [B,D]2 [A,E]2 z2 D2 z2 A,2 | z2 G2 z2 G2 z2 D2 z2 D2 | %3
 .[B,DF]4 z2 F2 [A,CE]2 [A,CA]2 [^G,D^G]2 [=G,E=G]2 | z2 D2 z2 E2 z2 B,2 z2 D2 | %5
 [B,B]2 [CA]2 [B,D]2 E2 z2 C2 z2 C2 | z2 C2 z2 D2 z2 G2 [Dc]2 d2 | x6[K:bass] x10 | %8
 z2 F2 z2 F2 z2 F2 z2 F2 | z8 [B,B]4 [A,A]4 | A,2 D2 F2 A2 z2 B2 z2 B2 | %11
 z2 GG G2 G2 z2 [EGA]2 [EGA]2 [EGA]2 | z2 E2 z2 E2 z2 E2 z2 E2 | z8 [B,B]4 [A,A]4 | %14
 C2 E2 G2 c2 z2 F2 z2 =C2 | z2 CC C2 B2 [Cc]2 [B,B]2 [A,A]2 [G,G]2 | z2 D2 z2 C2 z2 D2 z2 D2 | %17
 F2 D2 C2 D2 z2 [DG]2 .[A,DFA]4 | [A,A]2 D2 F2 A2 z2 B2 z2 B2 | z2 BB B2 B2 z2 B2 ^A2 B2 | %20
 z2 B2 z2 B2 z2 B2 z2 B2 | f2- [df-][df-] [df-]2 [df]2 d2 A2 ^G2 A2 | %22
 z2 ^G2 [Gc]2 [Gd]2 [A,=Ge]2 [A,Acf]4 [A,Gce]2 | z2[K:bass] B,2 A,2 F,2 D,8 |] %24
V:3
 z2 A,2 z2 A,2 z2 F,2 z2 A,2 | z8 [D,,D,]4 [D,,D,]4 | z2 D2 z2 D2 z2 A,2 z2 A,2 | z2 .[^G,D]6 z8 | %4
 z2 A,2 z2 A,2 z2 F,2 z2 A,2 | [G,,,G,,]4 z2 B,2 F,2 [F,^A,]2 F,2 [F,A,]2 | %6
 z2 A,2 z2 A,2 z2 D2 ^G,2 [G,D]2 | [A,,A,]2 [B,,,B,,]4 [C,,C,]2 [D,,D,]8 | %8
 z2 D2 z2 D2 z2 D2 z2 D2 | [F,,F,]2 [D,,D,]2 [C,,C,]2 [D,,D,]2 [B,,,B,,]4 z2 D2 | %10
 z8 [E,E]4[K:treble] [D,D]4 | [^A,,^A,]8 z8 | z2 C2 z2 C2 z2 C2 z2 C2 | %13
 [G,,G,]2 [E,,E,]2 [C,,C,]2 [E,,E,]2 [B,,,B,,]4 z2 C2 | %14
 [A,,,A,,]2 [C,,C,]2 [E,,E,]2 [A,,A,]2 z2 D2 z2 A,2 | %15
 z2 A,A, A,2 [B,,B,]2 [A,,A,]2 [G,,G,]2 [F,,F,]2 [E,,E,]2 | z2 A,2 z2 ^A,2 z2 B,2 z2 A,2 | %17
 [F,,F,]2 [D,,D,]2 [C,,C,]2 [D,,D,]2 [B,,,B,,]4 [A,,,A,,]4 | z8 [E,E]4[K:treble] [D,D]4 | %19
 z2[K:treble] GG G2 G2 z2[K:bass] [G,,G,]2 [F,,F,]2 [G,,G,]2 | z2 =F2 z2 F2 z2 F2 z2 F2 | %21
 z2[K:treble] AA A2 A2 [A,A]2[K:bass] [F,,F,]2 [=F,,=F,]2 [^F,,^F,]2 | [E,,E,]4 z4 z8 | %23
 [D,,D,]2 B,,2 A,,2 F,,2 D,,8 |] %24
V:4
 [D,,D,]4 [C,,C,]4 [B,,,B,,]4 [A,,,A,,]4 | %1
 [G,,,G,,]2 [A,,,A,,]2 [B,,,B,,]2 [C,,C,]2 z2 A,2 z2 F,2 | [G,,G,]4 [G,,G,]4 [F,,F,]4 [D,,D,]4 | %3
 z4 z2 [^G,D]2 [A,,,A,,]2 [A,,,A,,]2 [B,,,B,,]2 [C,,C,]2 | %4
 [D,,D,]4 [C,,C,]4 [B,,,B,,]4 [A,,,A,,]4 | z4 [G,,G,]4 F,,4 F,,4 | %6
 [E,,E,]4 [F,,F,]4 [G,,G,]4 ^G,,4 | x16 | [D,,D,]4 [A,,,A,,]4 [D,,D,]4 [A,,,A,,]4 | %9
 z8 z4 [A,,,A,,]4 | [A,,,A,,]2 [D,,D,]2 [F,,F,]2 [A,,A,]2 z2[K:treble] G2 z2 G2 | %11
 z2 EE E2 E2 [=A,,=A,]2 [A,,,A,,]2 [B,,,^A,,]2 [C,,C,]2 | [E,,E,]4 [A,,,A,,]4 [E,,E,]4 [A,,,A,,]4 | %13
 z8 z4 [A,,,A,,]4 | z8 [D,,D,]4 [^D,,^D,]4 | [E,,E,]8 z8 | %16
 [D,,D,]4 [C,,C,]4 [B,,,B,,]4 [A,,,A,,]4 | x16 | %18
 [A,,,A,,]2 [D,,D,]2 [F,,F,]2 [A,,A,]2 z2[K:treble] G2 z2 G2 | [G,,G,B,]8[K:treble] z8[K:bass] | %20
 [^G,,^G,]4 [G,,G,]4 [G,,G,]4 [G,,G,]4 | [A,,A,]8[K:treble] z8[K:bass] | %22
 z2 E2 [E,,E,]2 [E,,E,]2 [A,,,A,,]2 [A,,,A,,]4 [A,,,A,,]2 | x16 |] %24
V:5
 x16 | x16 | x16 | z4 E,4 z8 | x16 | x16 | x16 | x6[K:bass] x10 | x16 | x16 | x16 | x16 | x16 | %13
 x16 | x16 | x16 | x16 | x16 | x16 | x16 | x16 | x16 | x16 | x2[K:bass] x14 |] %24
V:6
 x16 | x16 | x16 | [B,,,B,,]4 E,,4 z8 | x16 | x16 | x16 | x16 | x16 | x16 | x10[K:treble] x6 | %11
 x16 | x16 | x16 | x16 | x16 | x16 | x16 | x10[K:treble] x6 | x2[K:treble] x8[K:bass] x6 | x16 | %21
 x2[K:treble] x8[K:bass] x6 | x16 | x16 |] %24

